icons/fill-new-building-palace-bank-goverment.svg

<svg xmlns="http://www.w3.org/2000/svg" width="32px" height="32px" viewBox="0 0 32 32" version="1.1">
    <title>fill-new-building-palace-bank-goverment</title>
    <g id="fill-new-building-palace-bank-goverment" stroke-width="1" fill-rule="evenodd">
        <path d="M14.7831369,1.43292837 C15.5010278,0.88254533 16.4989722,0.88254533 17.2168631,1.43292837 L28.6605134,10.2063936 C28.9073535,10.3956377 29.0520819,10.6889642 29.0520819,11 C29.0520819,11.5522847 28.6043666,12 28.0520819,12 L26,12 L26,24 L27,24 C27.5522847,24 28,24.4477153 28,25 C28,25.5522847 27.5522847,26 27,26 L5,26 C4.44771525,26 4,25.5522847 4,25 C4,24.4477153 4.44771525,24 5,24 L6,24 L6,12 L3.9479181,12 C3.68131595,12 3.42772475,11.8936689 3.2415369,11.7078441 L3.15431174,11.6084315 C2.81828428,11.1701349 2.90118987,10.5424211 3.33948656,10.2063936 L14.7831369,1.43292837 Z M11,13 C10.4477153,13 10,13.4477153 10,14 L10,22 C10,22.5522847 10.4477153,23 11,23 C11.5522847,23 12,22.5522847 12,22 L12,14 C12,13.4477153 11.5522847,13 11,13 Z M16,13 C15.4477153,13 15,13.4477153 15,14 L15,22 C15,22.5522847 15.4477153,23 16,23 C16.5522847,23 17,22.5522847 17,22 L17,14 C17,13.4477153 16.5522847,13 16,13 Z M21,13 C20.4477153,13 20,13.4477153 20,14 L20,22 C20,22.5522847 20.4477153,23 21,23 C21.5522847,23 22,22.5522847 22,22 L22,14 C22,13.4477153 21.5522847,13 21,13 Z M29,28 C29.5522847,28 30,28.4477153 30,29 C30,29.5522847 29.5522847,30 29,30 L3,30 C2.44771525,30 2,29.5522847 2,29 C2,28.4477153 2.44771525,28 3,28 L29,28 Z" id="&#24418;&#29366;" />
    </g>
</svg>

<svg xmlns="http://www.w3.org/2000/svg" viewBox="0 0 32 32"><path fill="currentColor" d="M14.783 1.433a2 2 0 0 1 2.434 0l11.444 8.773A1 1 0 0 1 28.052 12H26v12h1a1 1 0 0 1 0 2H5a1 1 0 0 1 0-2h1V12H3.948a1 1 0 0 1-.706-.292l-.088-.1a1 1 0 0 1 .185-1.402zM11 13a1 1 0 0 0-1 1v8a1 1 0 0 0 2 0v-8a1 1 0 0 0-1-1m5 0a1 1 0 0 0-1 1v8a1 1 0 0 0 2 0v-8a1 1 0 0 0-1-1m5 0a1 1 0 0 0-1 1v8a1 1 0 0 0 2 0v-8a1 1 0 0 0-1-1m8 15a1 1 0 0 1 0 2H3a1 1 0 0 1 0-2z"/></svg>
